; generated by Slic3r 0.9.9 on 2013-06-22 at 13:07:37

; M-PLA-05-03-1

; layer_height = 0.3
; perimeters = 2
; top_solid_layers = 3
; bottom_solid_layers = 2
; fill_density = 0.2
; perimeter_speed = 32
; infill_speed = 50
; travel_speed = 250
; nozzle_diameter = 0.5
; filament_diameter = 1.75
; extrusion_multiplier = 0.9
; perimeters extrusion width = 0.50mm
; infill extrusion width = 0.50mm
; solid infill extrusion width = 0.50mm
; top infill extrusion width = 0.50mm
; first layer extrusion width = 0.50mm

G21 ; set units to millimeters
M107
M190 S57 ; wait for bed temperature to be reached
M104 S200 ; set temperature
G28 X0 Y0
G28 Z0
G1 Z0.3 F200
G1 X15 Y20 F12000
M109 S200 ; wait for temperature to be reached
G90 ; use absolute coordinates
G92 E0
M82 ; use absolute distances for extrusion
G1 F2760.000 E-3.20000
G92 E0
G1 Z0.300 F15000.000
G1 X100.390 Y92.670
G1 F2760.000 E3.20000
G1 X100.820 Y92.260 F611.393 E3.23335
G1 X101.140 Y92.040 E3.25514
G1 X101.480 Y91.850 E3.27700
G1 X101.840 Y91.700 E3.29889
G1 X102.220 Y91.590 E3.32110
G1 X102.610 Y91.520 E3.34334
G1 X103.000 Y91.500 E3.36525
G1 X113.000 Y91.500 E3.92652
G1 X113.390 Y91.520 E3.94844
G1 X113.970 Y91.640 E3.98168
G1 X114.520 Y91.850 E4.01472
G1 X115.030 Y92.150 E4.04793
G1 X115.330 Y92.390 E4.06949
G1 X115.740 Y92.820 E4.10284
G1 X115.960 Y93.140 E4.12464
G1 X116.150 Y93.480 E4.14650
G1 X116.300 Y93.840 E4.16839
G1 X116.410 Y94.220 E4.19059
G1 X116.480 Y94.610 E4.21283
G1 X116.500 Y95.000 E4.23475
G1 X116.500 Y105.000 E4.79601
G1 X116.480 Y105.390 E4.81793
G1 X116.360 Y105.970 E4.85117
G1 X116.150 Y106.520 E4.88422
G1 X115.850 Y107.030 E4.91743
G1 X115.610 Y107.330 E4.93899
G1 X115.180 Y107.740 E4.97234
G1 X114.860 Y107.960 E4.99413
G1 X114.520 Y108.150 E5.01599
G1 X114.160 Y108.300 E5.03788
G1 X113.780 Y108.410 E5.06009
G1 X113.390 Y108.480 E5.08232
G1 X113.000 Y108.500 E5.10424
G1 X103.000 Y108.500 E5.66551
G1 X102.610 Y108.480 E5.68743
G1 X102.030 Y108.360 E5.72067
G1 X101.480 Y108.150 E5.75371
G1 X100.970 Y107.850 E5.78692
G1 X100.670 Y107.610 E5.80848
G1 X100.260 Y107.180 E5.84183
G1 X100.040 Y106.860 E5.86363
G1 X99.850 Y106.520 E5.88549
G1 X99.700 Y106.160 E5.90738
G1 X99.590 Y105.780 E5.92958
G1 X99.520 Y105.390 E5.95182
G1 X99.500 Y105.000 E5.97374
G1 X99.500 Y95.000 E6.53500
G1 X99.520 Y94.610 E6.55692
G1 X99.590 Y94.220 E6.57916
G1 X99.770 Y93.660 E6.61217
G1 X100.040 Y93.140 E6.64506
G1 X100.341 Y92.727 E6.67375
G1 F2760.000 E3.47375
G92 E0
G1 X103.750 Y95.750 F15000.000
G1 F2760.000 E3.20000
G1 X112.250 Y95.750 F600.000 E3.67708
G1 X112.250 Y104.250 E4.15415
G1 X103.750 Y104.250 E4.63123
G1 X103.750 Y95.825 E5.10409
G1 X103.250 Y95.250 F15000.000
G1 X112.750 Y95.250 F600.000 E5.63729
G1 X112.750 Y104.750 E6.17049
G1 X103.250 Y104.750 E6.70370
G1 X103.250 Y95.325 E7.23269
G1 X103.683 Y95.500 F15000.000
G1 F2760.000 E4.03269
G92 E0
G1 X111.888 Y96.113 F15000.000
G1 F2760.000 E3.20000
G1 X111.147 Y96.112 F764.241 E3.24353
G1 X111.888 Y96.853 E3.30510
G1 X111.888 Y97.594 E3.34862
G1 X110.406 Y96.112 E3.47174
G1 X109.666 Y96.112 E3.51526
G1 X111.888 Y98.334 E3.69993
G1 X111.888 Y99.074 E3.74345
G1 X108.925 Y96.112 E3.98966
G1 X108.185 Y96.112 E4.03318
G1 X111.888 Y99.815 E4.34095
G1 X111.888 Y100.555 E4.38447
G1 X107.445 Y96.112 E4.75379
G1 X106.704 Y96.112 E4.79731
G1 X111.888 Y101.296 E5.22817
G1 X111.888 Y102.036 E5.27169
G1 X105.964 Y96.112 E5.76411
G1 X105.223 Y96.112 E5.80763
G1 X111.888 Y102.777 E6.36159
G1 X111.888 Y103.517 E6.40511
G1 X104.483 Y96.112 E7.02063
G1 X104.112 Y96.483 E7.05140
G1 X111.517 Y103.888 E7.66691
G1 X110.777 Y103.888 E7.71043
G1 X104.112 Y97.223 E8.26440
G1 X104.112 Y97.964 E8.30792
G1 X110.036 Y103.888 E8.80033
G1 X109.296 Y103.888 E8.84385
G1 X104.112 Y98.704 E9.27472
G1 X104.112 Y99.445 E9.31824
G1 X108.555 Y103.888 E9.68755
G1 X107.815 Y103.888 E9.73108
G1 X104.112 Y100.185 E10.03884
G1 X104.112 Y100.925 E10.08236
G1 X107.074 Y103.888 E10.32858
G1 X106.334 Y103.888 E10.37210
G1 X104.112 Y101.666 E10.55676
G1 X104.112 Y102.406 E10.60029
G1 X105.594 Y103.888 E10.72340
G1 X104.853 Y103.888 E10.76692
G1 X104.112 Y103.147 E10.82849
G1 X104.113 Y103.888 E10.87202
G1 F2760.000 E7.67202
G92 E0
G1 Z0.600 F15000.000
G1 X103.750 Y104.250
G1 F2760.000 E3.20000
G1 X103.750 Y95.750 F600.000 E3.67708
G1 X112.250 Y95.750 E4.15415
G1 X112.250 Y104.250 E4.63123
G1 X103.825 Y104.250 E5.10409
G1 X103.250 Y104.750 F15000.000
G1 X103.250 Y95.250 F600.000 E5.63729
G1 X112.750 Y95.250 E6.17049
G1 X112.750 Y104.750 E6.70370
G1 X103.325 Y104.750 E7.23269
G1 X103.500 Y104.317 F15000.000
G1 F2760.000 E4.03269
G92 E0
G1 X104.113 Y96.112 F15000.000
G1 F2760.000 E3.20000
G1 X104.112 Y96.853 F600.000 E3.24353
G1 X104.853 Y96.112 E3.30510
G1 X105.594 Y96.112 E3.34862
G1 X104.112 Y97.594 E3.47174
G1 X104.112 Y98.334 E3.51526
G1 X106.334 Y96.112 E3.69993
G1 X107.074 Y96.112 E3.74345
G1 X104.112 Y99.074 E3.98966
G1 X104.112 Y99.815 E4.03318
G1 X107.815 Y96.112 E4.34095
G1 X108.555 Y96.112 E4.38447
G1 X104.112 Y100.555 E4.75379
G1 X104.112 Y101.296 E4.79731
G1 X109.296 Y96.112 E5.22817
G1 X110.036 Y96.112 E5.27169
G1 X104.112 Y102.036 E5.76411
G1 X104.112 Y102.777 E5.80763
G1 X110.777 Y96.112 E6.36159
G1 X111.517 Y96.112 E6.40511
G1 X104.112 Y103.517 E7.02063
G1 X104.483 Y103.888 E7.05140
G1 X111.888 Y96.483 E7.66691
G1 X111.888 Y97.223 E7.71043
G1 X105.223 Y103.888 E8.26440
G1 X105.964 Y103.888 E8.30792
G1 X111.888 Y97.964 E8.80033
G1 X111.888 Y98.704 E8.84385
G1 X106.704 Y103.888 E9.27472
G1 X107.445 Y103.888 E9.31824
G1 X111.888 Y99.445 E9.68755
G1 X111.888 Y100.185 E9.73108
G1 X108.185 Y103.888 E10.03884
G1 X108.925 Y103.888 E10.08236
G1 X111.888 Y100.925 E10.32858
G1 X111.888 Y101.666 E10.37210
G1 X109.666 Y103.888 E10.55676
G1 X110.406 Y103.888 E10.60029
G1 X111.888 Y102.406 E10.72340
G1 X111.888 Y103.147 E10.76692
G1 X111.147 Y103.888 E10.82849
G1 X111.888 Y103.887 E10.87202
G1 F2760.000 E7.67202
G92 E0
G1 Z0.900 F15000.000
G1 X112.250 Y104.250
G1 F2760.000 E3.20000
G1 X103.750 Y104.250 F600.000 E3.67708
G1 X103.750 Y95.750 E4.15415
G1 X112.250 Y95.750 E4.63123
G1 X112.250 Y104.175 E5.10409
G1 X112.750 Y104.750 F15000.000
G1 X103.250 Y104.750 F600.000 E5.63729
G1 X103.250 Y95.250 E6.17049
G1 X112.750 Y95.250 E6.70370
G1 X112.750 Y104.675 E7.23269
G1 X112.317 Y104.500 F15000.000
G1 F2760.000 E4.03269
G92 E0
G1 X104.113 Y103.888 F15000.000
G1 F2760.000 E3.20000
G1 X104.112 Y100.352 F600.000 E3.39845
G1 X107.648 Y103.888 E3.67910
G1 X111.184 Y103.888 E3.87753
G1 X104.112 Y96.816 E4.43881
G1 X106.944 Y96.112 E4.60258
G1 X111.888 Y101.056 E4.99498
G1 X111.888 Y97.520 E5.19342
G1 X110.479 Y96.112 E5.30519
G1 F2760.000 E2.10519
G92 E0
G1 Z1.200 F15000.000
G1 X112.250 Y95.750
G1 F2760.000 E3.20000
G1 X112.250 Y104.250 F600.000 E3.67708
G1 X103.750 Y104.250 E4.15415
G1 X103.750 Y95.750 E4.63123
G1 X112.175 Y95.750 E5.10409
G1 X112.750 Y95.250 F15000.000
G1 X112.750 Y104.750 F600.000 E5.63729
G1 X103.250 Y104.750 E6.17049
G1 X103.250 Y95.250 E6.70370
G1 X112.675 Y95.250 E7.23269
G1 X112.500 Y95.683 F15000.000
G1 F2760.000 E4.03269
G92 E0
G1 X111.888 Y103.887 F15000.000
G1 F2760.000 E3.20000
G1 X108.352 Y103.888 F600.000 E3.39845
G1 X111.888 Y100.352 E3.67910
G1 X111.888 Y96.816 E3.87753
G1 X104.816 Y103.888 E4.43881
G1 X104.112 Y101.056 E4.60258
G1 X109.056 Y96.112 E4.99498
G1 X105.520 Y96.112 E5.19342
G1 X104.112 Y97.520 E5.30519
M106 S255
G1 F2760.000 E2.10519
G92 E0
G1 Z1.500 F15000.000
G1 X103.750 Y95.750
G1 F2760.000 E3.20000
G1 X112.250 Y95.750 F600.000 E3.67708
G1 X112.250 Y104.250 E4.15415
G1 X103.750 Y104.250 E4.63123
G1 X103.750 Y95.825 E5.10409
G1 X103.250 Y95.250 F15000.000
G1 X112.750 Y95.250 F600.000 E5.63729
G1 X112.750 Y104.750 E6.17049
G1 X103.250 Y104.750 E6.70370
G1 X103.250 Y95.325 E7.23269
G1 X103.683 Y95.500 F15000.000
G1 F2760.000 E4.03269
G92 E0
G1 X110.479 Y96.112 F15000.000
G1 F2760.000 E3.20000
G1 X111.888 Y97.520 F600.000 E3.31177
G1 X111.888 Y101.056 E3.51021
G1 X106.944 Y96.112 E3.90261
G1 X104.112 Y96.816 E4.06637
G1 X111.184 Y103.888 E4.62765
G1 X107.648 Y103.888 E4.82609
G1 X104.112 Y100.352 E5.10674
G1 X104.113 Y103.888 E5.30519
G1 F2760.000 E2.10519
G92 E0
G1 Z1.800 F15000.000
G1 X103.750 Y104.250
G1 F2760.000 E3.20000
G1 X103.750 Y95.750 F600.000 E3.67708
G1 X112.250 Y95.750 E4.15415
G1 X112.250 Y104.250 E4.63123
G1 X103.825 Y104.250 E5.10409
G1 X103.250 Y104.750 F15000.000
G1 X103.250 Y95.250 F600.000 E5.63729
G1 X112.750 Y95.250 E6.17049
G1 X112.750 Y104.750 E6.70370
G1 X103.325 Y104.750 E7.23269
G1 X103.500 Y104.317 F15000.000
G1 F2760.000 E4.03269
G92 E0
G1 X104.112 Y97.520 F15000.000
G1 F2760.000 E3.20000
G1 X105.520 Y96.112 F600.000 E3.31177
G1 X109.056 Y96.112 E3.51021
G1 X104.112 Y101.056 E3.90261
G1 X104.816 Y103.888 E4.06637
G1 X111.888 Y96.816 E4.62765
G1 X111.888 Y100.352 E4.82609
G1 X108.352 Y103.888 E5.10674
G1 X111.888 Y103.887 E5.30519
G1 F2760.000 E2.10519
G92 E0
G1 Z2.100 F15000.000
G1 X112.250 Y104.250
G1 F2760.000 E3.20000
G1 X103.750 Y104.250 F600.000 E3.67708
G1 X103.750 Y95.750 E4.15415
G1 X112.250 Y95.750 E4.63123
G1 X112.250 Y104.175 E5.10409
G1 X112.750 Y104.750 F15000.000
G1 X103.250 Y104.750 F600.000 E5.63729
G1 X103.250 Y95.250 E6.17049
G1 X112.750 Y95.250 E6.70370
G1 X112.750 Y104.675 E7.23269
G1 X112.317 Y104.500 F15000.000
G1 F2760.000 E4.03269
G92 E0
G1 X104.113 Y103.888 F15000.000
G1 F2760.000 E3.20000
G1 X104.112 Y100.352 F600.000 E3.39845
G1 X107.648 Y103.888 E3.67910
G1 X111.184 Y103.888 E3.87753
G1 X104.112 Y96.816 E4.43881
G1 X106.944 Y96.112 E4.60258
G1 X111.888 Y101.056 E4.99498
G1 X111.888 Y97.520 E5.19342
G1 X110.479 Y96.112 E5.30519
G1 F2760.000 E2.10519
G92 E0
G1 Z2.400 F15000.000
G1 X112.250 Y95.750
G1 F2760.000 E3.20000
G1 X112.250 Y104.250 F600.000 E3.67708
G1 X103.750 Y104.250 E4.15415
G1 X103.750 Y95.750 E4.63123
G1 X112.175 Y95.750 E5.10409
G1 X112.750 Y95.250 F15000.000
G1 X112.750 Y104.750 F600.000 E5.63729
G1 X103.250 Y104.750 E6.17049
G1 X103.250 Y95.250 E6.70370
G1 X112.675 Y95.250 E7.23269
G1 X112.500 Y95.683 F15000.000
G1 F2760.000 E4.03269
G92 E0
G1 X111.888 Y103.887 F15000.000
G1 F2760.000 E3.20000
G1 X108.352 Y103.888 F600.000 E3.39845
G1 X111.888 Y100.352 E3.67910
G1 X111.888 Y96.816 E3.87753
G1 X104.816 Y103.888 E4.43881
G1 X104.112 Y101.056 E4.60258
G1 X109.056 Y96.112 E4.99498
G1 X105.520 Y96.112 E5.19342
G1 X104.112 Y97.520 E5.30519
G1 F2760.000 E2.10519
G92 E0
G1 Z2.700 F15000.000
G1 X103.750 Y95.750
G1 F2760.000 E3.20000
G1 X112.250 Y95.750 F600.000 E3.67708
G1 X112.250 Y104.250 E4.15415
G1 X103.750 Y104.250 E4.63123
G1 X103.750 Y95.825 E5.10409
G1 X103.250 Y95.250 F15000.000
G1 X112.750 Y95.250 F600.000 E5.63729
G1 X112.750 Y104.750 E6.17049
G1 X103.250 Y104.750 E6.70370
G1 X103.250 Y95.325 E7.23269
G1 X103.683 Y95.500 F15000.000
G1 F2760.000 E4.03269
G92 E0
G1 X110.479 Y96.112 F15000.000
G1 F2760.000 E3.20000
G1 X111.888 Y97.520 F600.000 E3.31177
G1 X111.888 Y101.056 E3.51021
G1 X106.944 Y96.112 E3.90261
G1 X104.112 Y96.816 E4.06637
G1 X111.184 Y103.888 E4.62765
G1 X107.648 Y103.888 E4.82609
G1 X104.112 Y100.352 E5.10674
G1 X104.113 Y103.888 E5.30519
G1 F2760.000 E2.10519
G92 E0
G1 Z3.000 F15000.000
G1 X103.750 Y104.250
G1 F2760.000 E3.20000
G1 X103.750 Y95.750 F600.000 E3.67708
G1 X112.250 Y95.750 E4.15415
G1 X112.250 Y104.250 E4.63123
G1 X103.825 Y104.250 E5.10409
G1 X103.250 Y104.750 F15000.000
G1 X103.250 Y95.250 F600.000 E5.63729
G1 X112.750 Y95.250 E6.17049
G1 X112.750 Y104.750 E6.70370
G1 X103.325 Y104.750 E7.23269
G1 X103.500 Y104.317 F15000.000
G1 F2760.000 E4.03269
G92 E0
G1 X104.112 Y97.520 F15000.000
G1 F2760.000 E3.20000
G1 X105.520 Y96.112 F600.000 E3.31177
G1 X109.056 Y96.112 E3.51021
G1 X104.112 Y101.056 E3.90261
G1 X104.816 Y103.888 E4.06637
G1 X111.888 Y96.816 E4.62765
G1 X111.888 Y100.352 E4.82609
G1 X108.352 Y103.888 E5.10674
G1 X111.888 Y103.887 E5.30519
G1 F2760.000 E2.10519
G92 E0
G1 Z3.300 F15000.000
G1 X112.250 Y104.250
G1 F2760.000 E3.20000
G1 X103.750 Y104.250 F600.000 E3.67708
G1 X103.750 Y95.750 E4.15415
G1 X112.250 Y95.750 E4.63123
G1 X112.250 Y104.175 E5.10409
G1 X112.750 Y104.750 F15000.000
G1 X103.250 Y104.750 F600.000 E5.63729
G1 X103.250 Y95.250 E6.17049
G1 X112.750 Y95.250 E6.70370
G1 X112.750 Y104.675 E7.23269
G1 X112.317 Y104.500 F15000.000
G1 F2760.000 E4.03269
G92 E0
G1 X104.113 Y103.888 F15000.000
G1 F2760.000 E3.20000
G1 X104.112 Y100.352 F600.000 E3.39845
G1 X107.648 Y103.888 E3.67910
G1 X111.184 Y103.888 E3.87753
G1 X104.112 Y96.816 E4.43881
G1 X106.944 Y96.112 E4.60258
G1 X111.888 Y101.056 E4.99498
G1 X111.888 Y97.520 E5.19342
G1 X110.479 Y96.112 E5.30519
G1 F2760.000 E2.10519
G92 E0
G1 Z3.600 F15000.000
G1 X112.250 Y95.750
G1 F2760.000 E3.20000
G1 X112.250 Y104.250 F600.000 E3.67708
G1 X103.750 Y104.250 E4.15415
G1 X103.750 Y95.750 E4.63123
G1 X112.175 Y95.750 E5.10409
G1 X112.750 Y95.250 F15000.000
G1 X112.750 Y104.750 F600.000 E5.63729
G1 X103.250 Y104.750 E6.17049
G1 X103.250 Y95.250 E6.70370
G1 X112.675 Y95.250 E7.23269
G1 X112.500 Y95.683 F15000.000
G1 F2760.000 E4.03269
G92 E0
G1 X111.888 Y103.887 F15000.000
G1 F2760.000 E3.20000
G1 X108.352 Y103.888 F600.000 E3.39845
G1 X111.888 Y100.352 E3.67910
G1 X111.888 Y96.816 E3.87753
G1 X104.816 Y103.888 E4.43881
G1 X104.112 Y101.056 E4.60258
G1 X109.056 Y96.112 E4.99498
G1 X105.520 Y96.112 E5.19342
G1 X104.112 Y97.520 E5.30519
G1 F2760.000 E2.10519
G92 E0
G1 Z3.900 F15000.000
G1 X103.750 Y95.750
G1 F2760.000 E3.20000
G1 X112.250 Y95.750 F600.000 E3.67708
G1 X112.250 Y104.250 E4.15415
G1 X103.750 Y104.250 E4.63123
G1 X103.750 Y95.825 E5.10409
G1 X103.250 Y95.250 F15000.000
G1 X112.750 Y95.250 F600.000 E5.63729
G1 X112.750 Y104.750 E6.17049
G1 X103.250 Y104.750 E6.70370
G1 X103.250 Y95.325 E7.23269
G1 X103.683 Y95.500 F15000.000
G1 F2760.000 E4.03269
G92 E0
G1 X110.479 Y96.112 F15000.000
G1 F2760.000 E3.20000
G1 X111.888 Y97.520 F600.000 E3.31177
G1 X111.888 Y101.056 E3.51021
G1 X106.944 Y96.112 E3.90261
G1 X104.112 Y96.816 E4.06637
G1 X111.184 Y103.888 E4.62765
G1 X107.648 Y103.888 E4.82609
G1 X104.112 Y100.352 E5.10674
G1 X104.113 Y103.888 E5.30519
G1 F2760.000 E2.10519
G92 E0
G1 Z4.200 F15000.000
G1 X103.750 Y104.250
G1 F2760.000 E3.20000
G1 X103.750 Y95.750 F600.000 E3.67708
G1 X112.250 Y95.750 E4.15415
G1 X112.250 Y104.250 E4.63123
G1 X103.825 Y104.250 E5.10409
G1 X103.250 Y104.750 F15000.000
G1 X103.250 Y95.250 F600.000 E5.63729
G1 X112.750 Y95.250 E6.17049
G1 X112.750 Y104.750 E6.70370
G1 X103.325 Y104.750 E7.23269
G1 X103.500 Y104.317 F15000.000
G1 F2760.000 E4.03269
G92 E0
G1 X104.112 Y97.520 F15000.000
G1 F2760.000 E3.20000
G1 X105.520 Y96.112 F600.000 E3.31177
G1 X109.056 Y96.112 E3.51021
G1 X104.112 Y101.056 E3.90261
G1 X104.816 Y103.888 E4.06637
G1 X111.888 Y96.816 E4.62765
G1 X111.888 Y100.352 E4.82609
G1 X108.352 Y103.888 E5.10674
G1 X111.888 Y103.887 E5.30519
G1 F2760.000 E2.10519
G92 E0
G1 Z4.500 F15000.000
G1 X112.250 Y104.250
G1 F2760.000 E3.20000
G1 X103.750 Y104.250 F600.000 E3.67708
G1 X103.750 Y95.750 E4.15415
G1 X112.250 Y95.750 E4.63123
G1 X112.250 Y104.175 E5.10409
G1 X112.750 Y104.750 F15000.000
G1 X103.250 Y104.750 F600.000 E5.63729
G1 X103.250 Y95.250 E6.17049
G1 X112.750 Y95.250 E6.70370
G1 X112.750 Y104.675 E7.23269
G1 X112.317 Y104.500 F15000.000
G1 F2760.000 E4.03269
G92 E0
G1 X104.113 Y103.888 F15000.000
G1 F2760.000 E3.20000
G1 X104.112 Y100.352 F600.000 E3.39845
G1 X107.648 Y103.888 E3.67910
G1 X111.184 Y103.888 E3.87753
G1 X104.112 Y96.816 E4.43881
G1 X106.944 Y96.112 E4.60258
G1 X111.888 Y101.056 E4.99498
G1 X111.888 Y97.520 E5.19342
G1 X110.479 Y96.112 E5.30519
G1 F2760.000 E2.10519
G92 E0
G1 Z4.800 F15000.000
G1 X112.250 Y95.750
G1 F2760.000 E3.20000
G1 X112.250 Y104.250 F600.000 E3.67708
G1 X103.750 Y104.250 E4.15415
G1 X103.750 Y95.750 E4.63123
G1 X112.175 Y95.750 E5.10409
G1 X112.750 Y95.250 F15000.000
G1 X112.750 Y104.750 F600.000 E5.63729
G1 X103.250 Y104.750 E6.17049
G1 X103.250 Y95.250 E6.70370
G1 X112.675 Y95.250 E7.23269
G1 X112.500 Y95.683 F15000.000
G1 F2760.000 E4.03269
G92 E0
G1 X111.888 Y103.887 F15000.000
G1 F2760.000 E3.20000
G1 X108.352 Y103.888 F600.000 E3.39845
